icon-svg/romaine-lettuce.svg

<svg xmlns="http://www.w3.org/2000/svg" fill="#44739e" viewBox="0 0 24 24"><path d="m15.013 3.945.237.237.242-.188A2.087 2.087 0 0 1 17.4 3.5a2.29 2.29 0 0 1 1 1.172l.059.17h.706l-.032-.142a2.885 2.885 0 0 0-1.382-1.8 1.89 1.89 0 0 0-1.257-.135 3.3 3.3 0 0 0-.917.349 4.9 4.9 0 0 0-.806.573 1.9 1.9 0 0 0 .242.258m-9.475.899.058-.17A2.3 2.3 0 0 1 6.6 3.5a2.053 2.053 0 0 1 1.9.5l.242.183.237-.237a1.83 1.83 0 0 0 .241-.264 5.1 5.1 0 0 0-.894-.626 2.95 2.95 0 0 0-1.718-.313A2.8 2.8 0 0 0 4.863 4.7l-.032.148h.707Zm15.407 2.483a3.75 3.75 0 0 0-.067-.537 1.755 1.755 0 0 0-2.125-1.548 3.338 3.338 0 0 0-1.937 1.078l-.439.425.264.233.264.233.376-.372a2.566 2.566 0 0 1 1.705-.908.961.961 0 0 1 .908.309 1.46 1.46 0 0 1 .306 1.065 5.825 5.825 0 0 1-.657 2.214c-.161.416-.313.85-.345.962a3.74 3.74 0 0 0 .161 1.588 4.6 4.6 0 0 1 .134 1.968 4.2 4.2 0 0 1-1.1 1.745 2.573 2.573 0 0 0-.85 1.816 2.162 2.162 0 0 1-.805 1.7 4.46 4.46 0 0 1-1.016.783.69.69 0 0 1 .09-.237 22.7 22.7 0 0 0 1.163-3.024 5.2 5.2 0 0 1 1.4-2.224c.349-.375.389-.478.242-.626-.184-.183-.34-.089-.828.483a1.9 1.9 0 0 1-.282.3c-.036-.036.765-3.606 1.092-4.849.17-.662.192-.8.152-.9a.341.341 0 0 0-.447-.174c-.148.062-.166.1-.43.984-.094.308-.273.85-.4 1.208-.456 1.275-.438 1.23-.469 1.113a2.1 2.1 0 0 1-.036-.384 8.3 8.3 0 0 0-.2-1.436c-.049-.152-.067-.166-.228-.166-.264 0-.282.058-.188.725a12 12 0 0 1 .076 2.442 3.274 3.274 0 0 1-.425 1.387c-.416.958-1.02 2.259-1.337 2.872l-.206.4v-.949a3.146 3.146 0 0 1 .505-2.116 4.94 4.94 0 0 0 .631-3.22 3.278 3.278 0 0 1 .139-2.224 6.15 6.15 0 0 0 .554-2.474 2.95 2.95 0 0 0-.317-1.471 3.02 3.02 0 0 0-.837-.949l-.456-.4-.28-.598A2.308 2.308 0 0 0 12.848 2.1a4.64 4.64 0 0 0-1.369-.076 2.278 2.278 0 0 0-1.342.689 3.29 3.29 0 0 0-.537.864l-.286.595-.456.4a3.02 3.02 0 0 0-.837.949 2.95 2.95 0 0 0-.321 1.47 6.37 6.37 0 0 0 .589 2.559 3.215 3.215 0 0 1 .111 2.139 4.944 4.944 0 0 0 .63 3.22 3.152 3.152 0 0 1 .506 2.116v.949l-.206-.4c-.322-.626-.971-2.017-1.36-2.921a3.23 3.23 0 0 1-.4-1.342 11.88 11.88 0 0 1 .076-2.438c.089-.653.076-.716-.175-.738-.121-.009-.17.009-.206.071a5.78 5.78 0 0 0-.205 1.2c-.014.2-.036.47-.054.6l-.022.246-.13-.336c-.219-.568-.608-1.7-.756-2.192-.237-.783-.26-.836-.4-.894a.341.341 0 0 0-.455.17c-.04.1-.018.242.152.9.327 1.243 1.127 4.813 1.092 4.849a1.84 1.84 0 0 1-.282-.3c-.488-.572-.644-.666-.828-.483-.148.148-.107.255.192.573a9 9 0 0 1 .98 1.216 3.19 3.19 0 0 1 .479 1.1 22.16 22.16 0 0 0 1.154 2.989.66.66 0 0 1 .089.237 4.48 4.48 0 0 1-1.015-.781 2.288 2.288 0 0 1-.823-1.8c-.1-.836-.21-1.029-1.083-2.013a4.08 4.08 0 0 1-.845-1.454 4.52 4.52 0 0 1 .13-1.968 3.76 3.76 0 0 0 .165-1.584c-.032-.112-.184-.546-.345-.962a5.825 5.825 0 0 1-.657-2.214A1.46 1.46 0 0 1 4.1 6.24a.961.961 0 0 1 .908-.309 2.566 2.566 0 0 1 1.705.908l.375.372.264-.233.264-.228-.326-.331a3.208 3.208 0 0 0-2.429-1.19 1.33 1.33 0 0 0-.725.125 1.886 1.886 0 0 0-.85.859 3.1 3.1 0 0 0-.183.671 1.74 1.74 0 0 0-.018.743 16.15 16.15 0 0 0 .747 2.25 4.5 4.5 0 0 1 .282.917 6.1 6.1 0 0 1-.17 1.163 4.566 4.566 0 0 0-.137 2.143 5.215 5.215 0 0 0 1.449 2.353 2.03 2.03 0 0 1 .524 1.387 2.373 2.373 0 0 0 .492 1.4 6.33 6.33 0 0 0 2.187 1.767 6.8 6.8 0 0 1 .873.559 2.9 2.9 0 0 0 .452.313l.223.121h3.982l.223-.121a2.8 2.8 0 0 0 .457-.317 4.05 4.05 0 0 1 .581-.394 7.4 7.4 0 0 0 2.031-1.414 2.674 2.674 0 0 0 .935-1.914 2.033 2.033 0 0 1 .523-1.383 5.263 5.263 0 0 0 1.454-2.357 4.635 4.635 0 0 0-.143-2.147 10 10 0 0 1-.179-1.083 6.44 6.44 0 0 1 .582-1.78 6.84 6.84 0 0 0 .492-1.763m-7.207 10.021a7.25 7.25 0 0 1-.121 1.776 3.8 3.8 0 0 1-.17.492c-.08.143-.085.1-.277-2.582-.188-2.621-.192-2.737-.121-2.952a6.19 6.19 0 0 1 1.016-1.772c.2-.232.219-.4.071-.505a.37.37 0 0 0-.174-.072 3.525 3.525 0 0 0-.94 1.159l-.107.2-.031-.264c-.014-.148-.041-.546-.058-.89l-.032-.627.188-.425a10.06 10.06 0 0 1 1.078-1.855c.26-.344.354-.5.354-.6 0-.143-.1-.228-.264-.228a4.46 4.46 0 0 0-1.172 1.535c-.184.317-.264.416-.278.358a6.2 6.2 0 0 1-.053-.663 1.97 1.97 0 0 1 .111-1.033 7.35 7.35 0 0 1 1.1-2.134c.291-.376.255-.644-.076-.609-.125.014-.184.072-.448.439a8.1 8.1 0 0 0-.541.881 2.58 2.58 0 0 1-.268.461c-.023 0-.036-.067-.036-.148 0-.416-.148-2.487-.188-2.59a.331.331 0 0 0-.434-.17.34.34 0 0 0-.174.17c-.041.1-.193 2.174-.188 2.59 0 .081-.014.148-.031.148a2.12 2.12 0 0 1-.273-.461 8.1 8.1 0 0 0-.541-.877c-.264-.367-.322-.425-.447-.439-.331-.035-.367.228-.076.6a7.45 7.45 0 0 1 1.1 2.139 1.96 1.96 0 0 1 .112 1.028 6.2 6.2 0 0 1-.053.663c-.014.058-.094-.041-.278-.358A4.46 4.46 0 0 0 9.846 8.2c-.3 0-.353.26-.116.555a10 10 0 0 1 1.275 2.107l.2.447-.032.627c-.018.344-.044.742-.058.89l-.031.264-.108-.2a3.51 3.51 0 0 0-.939-1.159.3.3 0 0 0-.273.255.7.7 0 0 0 .175.322 6.1 6.1 0 0 1 1.033 1.843 21.8 21.8 0 0 1-.148 2.9c-.188 2.657-.192 2.7-.273 2.559a4.1 4.1 0 0 1-.17-.492 7.7 7.7 0 0 1-.12-1.776c-.036-1.633-.032-1.6-.474-2.488a7.38 7.38 0 0 1-.645-1.615 2.973 2.973 0 0 1-.022-1.588 3.643 3.643 0 0 0-.094-2.116 91 91 0 0 0-.34-.966 3.264 3.264 0 0 1 .085-2.917 4.77 4.77 0 0 1 .561-.552 2.58 2.58 0 0 0 .877-1.168 5.2 5.2 0 0 1 .4-.707 1.61 1.61 0 0 1 .752-.456 3.36 3.36 0 0 1 1.252 0 1.584 1.584 0 0 1 .77.461 5.2 5.2 0 0 1 .4.707 2.546 2.546 0 0 0 .877 1.153 5 5 0 0 1 .568.568 3.267 3.267 0 0 1 .085 2.917c-.1.273-.251.707-.345.966a3.56 3.56 0 0 0-.107 1.991 4.454 4.454 0 0 1-.649 3.328c-.443.891-.438.855-.474 2.488"/></svg>

<?xml version="1.0" encoding="UTF-8"?>
<svg width="24px" fill="#44739e" height="24px" viewBox="0 0 24 24" version="1.1" xmlns="http://www.w3.org/2000/svg" xmlns:xlink="http://www.w3.org/1999/xlink">
            <path d="M 15.013,3.945 15.25,4.182 15.492,3.994 A 2.087,2.087 0 0 1 17.4,3.5 a 2.29,2.29 0 0 1 1,1.172 l 0.059,0.17 h 0.706 L 19.133,4.7 A 2.885,2.885 0 0 0 17.751,2.9 1.891,1.891 0 0 0 16.494,2.765 3.306,3.306 0 0 0 15.577,3.114 4.894,4.894 0 0 0 14.771,3.687 1.876,1.876 0 0 0 15.013,3.945 Z M 5.538,4.844 5.596,4.674 A 2.3,2.3 0 0 1 6.6,3.5 2.053,2.053 0 0 1 8.5,4 L 8.742,4.183 8.979,3.946 A 1.834,1.834 0 0 0 9.22,3.682 5.1,5.1 0 0 0 8.326,3.056 2.95,2.95 0 0 0 6.608,2.743 2.8,2.8 0 0 0 4.863,4.7 L 4.831,4.848 H 5.538 Z M 20.945,7.327 A 3.752,3.752 0 0 0 20.878,6.79 1.755,1.755 0 0 0 18.753,5.242 3.338,3.338 0 0 0 16.816,6.32 l -0.439,0.425 0.264,0.233 0.264,0.233 0.376,-0.372 A 2.566,2.566 0 0 1 18.986,5.931 0.961,0.961 0 0 1 19.894,6.24 1.459,1.459 0 0 1 20.2,7.305 5.825,5.825 0 0 1 19.543,9.519 c -0.161,0.416 -0.313,0.85 -0.345,0.962 a 3.743,3.743 0 0 0 0.161,1.588 4.6,4.6 0 0 1 0.134,1.968 4.2,4.2 0 0 1 -1.1,1.745 2.573,2.573 0 0 0 -0.85,1.816 2.162,2.162 0 0 1 -0.805,1.7 4.457,4.457 0 0 1 -1.016,0.783 0.693,0.693 0 0 1 0.09,-0.237 22.665,22.665 0 0 0 1.163,-3.024 5.2,5.2 0 0 1 1.4,-2.224 c 0.349,-0.375 0.389,-0.478 0.242,-0.626 -0.184,-0.183 -0.34,-0.089 -0.828,0.483 a 1.892,1.892 0 0 1 -0.282,0.3 c -0.036,-0.036 0.765,-3.606 1.092,-4.849 0.17,-0.662 0.192,-0.8 0.152,-0.9 A 0.341,0.341 0 0 0 18.304,8.83 c -0.148,0.062 -0.166,0.1 -0.43,0.984 -0.094,0.308 -0.273,0.85 -0.4,1.208 -0.456,1.275 -0.438,1.23 -0.469,1.113 a 2.117,2.117 0 0 1 -0.036,-0.384 8.316,8.316 0 0 0 -0.2,-1.436 c -0.049,-0.152 -0.067,-0.166 -0.228,-0.166 -0.264,0 -0.282,0.058 -0.188,0.725 a 11.981,11.981 0 0 1 0.076,2.442 3.274,3.274 0 0 1 -0.425,1.387 c -0.416,0.958 -1.02,2.259 -1.337,2.872 l -0.206,0.4 V 17.026 A 3.146,3.146 0 0 1 14.966,14.91 4.939,4.939 0 0 0 15.597,11.69 3.278,3.278 0 0 1 15.736,9.466 6.15,6.15 0 0 0 16.29,6.992 2.949,2.949 0 0 0 15.973,5.521 3.017,3.017 0 0 0 15.136,4.572 L 14.68,4.172 14.4,3.574 A 2.308,2.308 0 0 0 12.848,2.1 4.639,4.639 0 0 0 11.479,2.024 2.278,2.278 0 0 0 10.137,2.713 3.287,3.287 0 0 0 9.6,3.577 L 9.314,4.172 8.858,4.572 A 3.017,3.017 0 0 0 8.021,5.521 2.949,2.949 0 0 0 7.7,6.991 6.373,6.373 0 0 0 8.289,9.55 3.215,3.215 0 0 1 8.4,11.689 a 4.944,4.944 0 0 0 0.63,3.22 3.152,3.152 0 0 1 0.506,2.116 v 0.949 L 9.33,17.574 C 9.008,16.948 8.359,15.557 7.97,14.653 A 3.228,3.228 0 0 1 7.57,13.311 11.879,11.879 0 0 1 7.646,10.873 C 7.735,10.22 7.722,10.157 7.471,10.135 7.35,10.126 7.301,10.144 7.265,10.206 a 5.782,5.782 0 0 0 -0.205,1.2 c -0.014,0.2 -0.036,0.47 -0.054,0.6 L 6.984,12.252 6.854,11.916 C 6.635,11.348 6.246,10.216 6.098,9.724 5.861,8.941 5.838,8.888 5.698,8.83 A 0.341,0.341 0 0 0 5.243,9 c -0.04,0.1 -0.018,0.242 0.152,0.9 0.327,1.243 1.127,4.813 1.092,4.849 a 1.841,1.841 0 0 1 -0.282,-0.3 C 5.717,13.877 5.561,13.783 5.377,13.966 5.229,14.114 5.27,14.221 5.569,14.539 a 8.982,8.982 0 0 1 0.98,1.216 3.193,3.193 0 0 1 0.479,1.1 22.161,22.161 0 0 0 1.154,2.989 0.656,0.656 0 0 1 0.089,0.237 A 4.481,4.481 0 0 1 7.256,19.3 2.288,2.288 0 0 1 6.433,17.5 C 6.333,16.664 6.223,16.471 5.35,15.487 A 4.08,4.08 0 0 1 4.505,14.033 4.521,4.521 0 0 1 4.635,12.065 3.761,3.761 0 0 0 4.8,10.481 C 4.768,10.369 4.616,9.935 4.455,9.519 A 5.825,5.825 0 0 1 3.798,7.305 1.459,1.459 0 0 1 4.1,6.24 0.961,0.961 0 0 1 5.008,5.931 2.566,2.566 0 0 1 6.713,6.839 L 7.088,7.211 7.352,6.978 7.616,6.75 7.29,6.419 A 3.208,3.208 0 0 0 4.861,5.229 1.328,1.328 0 0 0 4.136,5.354 1.886,1.886 0 0 0 3.286,6.213 3.1,3.1 0 0 0 3.103,6.884 1.744,1.744 0 0 0 3.085,7.627 a 16.153,16.153 0 0 0 0.747,2.25 4.509,4.509 0 0 1 0.282,0.917 6.088,6.088 0 0 1 -0.17,1.163 4.566,4.566 0 0 0 -0.137,2.143 5.215,5.215 0 0 0 1.449,2.353 2.029,2.029 0 0 1 0.524,1.387 2.373,2.373 0 0 0 0.492,1.4 6.328,6.328 0 0 0 2.187,1.767 6.777,6.777 0 0 1 0.873,0.559 2.9,2.9 0 0 0 0.452,0.313 L 10.007,22 h 3.982 l 0.223,-0.121 a 2.792,2.792 0 0 0 0.457,-0.317 4.048,4.048 0 0 1 0.581,-0.394 7.4,7.4 0 0 0 2.031,-1.414 2.674,2.674 0 0 0 0.935,-1.914 2.033,2.033 0 0 1 0.523,-1.383 A 5.263,5.263 0 0 0 20.193,14.1 4.635,4.635 0 0 0 20.05,11.953 9.981,9.981 0 0 1 19.871,10.87 6.441,6.441 0 0 1 20.453,9.09 6.841,6.841 0 0 0 20.945,7.327 Z m -7.207,10.021 a 7.249,7.249 0 0 1 -0.121,1.776 3.8,3.8 0 0 1 -0.17,0.492 c -0.08,0.143 -0.085,0.1 -0.277,-2.582 -0.188,-2.621 -0.192,-2.737 -0.121,-2.952 a 6.189,6.189 0 0 1 1.016,-1.772 c 0.2,-0.232 0.219,-0.4 0.071,-0.505 a 0.371,0.371 0 0 0 -0.174,-0.072 3.525,3.525 0 0 0 -0.94,1.159 l -0.107,0.2 -0.031,-0.264 C 12.87,12.68 12.843,12.282 12.826,11.938 l -0.032,-0.627 0.188,-0.425 A 10.059,10.059 0 0 1 14.06,9.031 c 0.26,-0.344 0.354,-0.5 0.354,-0.6 0,-0.143 -0.1,-0.228 -0.264,-0.228 a 4.46,4.46 0 0 0 -1.172,1.535 c -0.184,0.317 -0.264,0.416 -0.278,0.358 A 6.145,6.145 0 0 1 12.647,9.433 1.97,1.97 0 0 1 12.758,8.4 7.346,7.346 0 0 1 13.858,6.266 C 14.149,5.89 14.113,5.622 13.782,5.657 13.657,5.671 13.598,5.729 13.334,6.096 a 8.1,8.1 0 0 0 -0.541,0.881 2.575,2.575 0 0 1 -0.268,0.461 c -0.023,0 -0.036,-0.067 -0.036,-0.148 0,-0.416 -0.148,-2.487 -0.188,-2.59 A 0.331,0.331 0 0 0 11.867,4.53 0.34,0.34 0 0 0 11.693,4.7 c -0.041,0.1 -0.193,2.174 -0.188,2.59 0,0.081 -0.014,0.148 -0.031,0.148 A 2.118,2.118 0 0 1 11.201,6.977 8.109,8.109 0 0 0 10.66,6.1 C 10.396,5.733 10.338,5.675 10.213,5.661 9.882,5.626 9.846,5.889 10.137,6.261 a 7.445,7.445 0 0 1 1.1,2.139 1.959,1.959 0 0 1 0.112,1.028 6.145,6.145 0 0 1 -0.053,0.663 C 11.282,10.149 11.202,10.05 11.018,9.733 A 4.46,4.46 0 0 0 9.846,8.2 c -0.3,0 -0.353,0.26 -0.116,0.555 a 10.009,10.009 0 0 1 1.275,2.107 l 0.2,0.447 -0.032,0.627 c -0.018,0.344 -0.044,0.742 -0.058,0.89 l -0.031,0.264 -0.108,-0.2 a 3.513,3.513 0 0 0 -0.939,-1.159 0.3,0.3 0 0 0 -0.273,0.255 0.7,0.7 0 0 0 0.175,0.322 6.105,6.105 0 0 1 1.033,1.843 21.82,21.82 0 0 1 -0.148,2.9 c -0.188,2.657 -0.192,2.7 -0.273,2.559 a 4.131,4.131 0 0 1 -0.17,-0.492 7.685,7.685 0 0 1 -0.12,-1.776 c -0.036,-1.633 -0.032,-1.6 -0.474,-2.488 A 7.376,7.376 0 0 1 9.142,13.239 2.973,2.973 0 0 1 9.12,11.651 3.643,3.643 0 0 0 9.026,9.535 C 8.937,9.276 8.784,8.842 8.686,8.569 A 3.264,3.264 0 0 1 8.771,5.652 4.767,4.767 0 0 1 9.332,5.1 a 2.582,2.582 0 0 0 0.877,-1.168 5.175,5.175 0 0 1 0.4,-0.707 1.612,1.612 0 0 1 0.752,-0.456 3.357,3.357 0 0 1 1.252,0 1.584,1.584 0 0 1 0.77,0.461 5.175,5.175 0 0 1 0.4,0.707 2.546,2.546 0 0 0 0.877,1.153 4.984,4.984 0 0 1 0.568,0.568 3.267,3.267 0 0 1 0.085,2.917 c -0.1,0.273 -0.251,0.707 -0.345,0.966 a 3.56,3.56 0 0 0 -0.107,1.991 4.454,4.454 0 0 1 -0.649,3.328 c -0.443,0.891 -0.438,0.855 -0.474,2.488 z"/>

</svg>
